X:6
T:dr Heiwfuederer  Bb
%T:Dirigenten-Notiz, Edi Gasser. 
C:
M:2/4
%Q:1/4=110
R:Naturjuiz
L:1/4
K:C
[P:A] G>G | cG | e/2d/2c | A>F | dA | f2 | 
G>G | BG | f/2e/2d | c>B | cd | !fermata!e2 | G>G | 
cG | e/2d/2c | A>F | dA | f2 | G>G | BG | f/2e/2d | !fermata!c2 || 
[P:B] 
f>A | dA | f/2e/2d | e>G | cG | e/2d/2c | B>G | 
BG | f/2e/2d | c>B | cd | !fermata!e2 | f>A | dA | f/2e/2d | 
e>G | cG | e/2d/2c | B>G | BG | f/2e/2d | !fermata!c2 |] 
W:Parts: A-B-A-B

